symbols/web/shield_moon/materialsymbolsrounded/shield_moon_wght500grad200fill1_48px.svg

<svg xmlns="http://www.w3.org/2000/svg" height="48" width="48"><path d="M25.05 31.5q1.75 0 3.4-.725t2.95-2.125q.3-.35.275-.55-.025-.2-.475-.3-1.95-.4-3.7-1.575-1.75-1.175-2.9-3.075-1.05-1.75-1.25-3.85-.2-2.1.5-4.05.15-.45-.05-.6-.2-.15-.7-.05-3.1.7-4.875 3.125T16.45 23q0 3.5 2.525 6t6.075 2.5ZM24 44.7q-.25 0-.475-.025-.225-.025-.425-.075-7-2.1-11.475-8.575T7.15 21.85v-9.8q0-1.2.7-2.225Q8.55 8.8 9.7 8.35l13-4.85q.6-.2 1.3-.2.7 0 1.35.2l13 4.85q1.1.45 1.8 1.475.7 1.025.7 2.225v9.8q0 7.7-4.475 14.175Q31.9 42.5 24.9 44.6q.05-.05-.9.1Z"/></svg>

<svg xmlns="http://www.w3.org/2000/svg" height="48" width="48"><path d="M25.05 31.5Q26.8 31.5 28.45 30.775Q30.1 30.05 31.4 28.65Q31.7 28.3 31.675 28.1Q31.65 27.9 31.2 27.8Q29.25 27.4 27.5 26.225Q25.75 25.05 24.6 23.15Q23.55 21.4 23.35 19.3Q23.15 17.2 23.85 15.25Q24 14.8 23.8 14.65Q23.6 14.5 23.1 14.6Q20 15.3 18.225 17.725Q16.45 20.15 16.45 23Q16.45 26.5 18.975 29Q21.5 31.5 25.05 31.5ZM24 44.7Q23.75 44.7 23.525 44.675Q23.3 44.65 23.1 44.6Q16.1 42.5 11.625 36.025Q7.15 29.55 7.15 21.85V12.05Q7.15 10.85 7.85 9.825Q8.55 8.8 9.7 8.35L22.7 3.5Q23.3 3.3 24 3.3Q24.7 3.3 25.35 3.5L38.35 8.35Q39.45 8.8 40.15 9.825Q40.85 10.85 40.85 12.05V21.85Q40.85 29.55 36.375 36.025Q31.9 42.5 24.9 44.6Q24.95 44.55 24 44.7Z"/></svg>
